!!!COM:	Hayden Taylor
!!!OTL:	Fantasia
**kern	**kern	**kern	**dynam
*part1	*part1	*part1	*part1
*staff3	*staff2	*staff1	*
*I"Piano	*	*	*
*I'Pno.	*	*	*
*clefG2	*clefF4	*clefG2	*
*k[f#c#g#d#]	*k[f#c#g#d#]	*k[f#c#g#d#]	*
*M4/4	*M4/4	*M4/4	*
=1	=1	=1	=1
!	!	!LO:TX:a:B:t=Slow Ad Libitum	!
1r	1r	(>4cc#\	p
.	.	16qqb#X/	.
.	.	4cc#\	.
.	.	4g#/	.
.	.	8cc#/L	.
.	.	8g#,/J)	.
=2	=2	=2	=2
1r	1r	(>4cc#\	pp
.	.	16qqb#X/	.
.	.	4cc#\	.
.	.	4a/	.
.	.	8f#/L	.
.	.	8g#,/J)	.
=3	=3	=3	=3
1r	1r	(>4cc#\	.
.	.	16qqb#X/	.
.	.	4cc#\	.
.	.	8f#/L	.
.	.	8d#/J	.
.	.	8r	.
.	.	8b#,\)	.
=4	=4	=4	=4
*M5/4	*M5/4	*M5/4	*
!	!	!LO:TX:a:B:t=Slower	!
4%5r	4%5r	2cc#\)	p
.	.	(>4b#X\	.
.	.	2cc#\)	.
=5	=5	=5	=5
*M6/4	*M6/4	*M6/4	*
!	!	!LO:TX:a:B:t=Tempo Primo	!
1.r	1.r	(>4b#X\	.
.	.	2cc#\)	.
.	.	(>4b#\	.
.	.	2cc#\)	.
=6	=6	=6	=6
!!linebreak:original
1.r	1.r	(>8b#X\	mp
.	.	4cc#\)	>
.	.	(>8b#\	.
.	.	4cc#\)	.
.	.	(>8b#\	.
.	.	4cc#\)	.
.	.	(>8b#\	.
.	.	4cc#\)	.
=7	=7	=7	=7
*M3/4	*M3/4	*M3/4	*
2.r	2.r	4.b#X\	]
.	.	4.cc#\	.
=8	=8	=8	=8
*M4/4	*M4/4	*M4/4	*
!	!	!LO:TX:a:B:t=Faster, Stable, with Some Momentum	!
1r	4c#\	2b#X	mp
.	16qqB#X/	.	.
.	4c#\	.	.
.	4G#\	2cc#	.
.	8c#\L	.	.
.	8G#\J	.	.
=9	=9	=9	=9
1r	4c#\	2b#X	.
.	16qqB#X/	.	.
.	4c#\	.	.
.	4A\	2cc#	.
.	8F#\L	.	.
.	8G#\J	.	.
=10	=10	=10	=10
1r	4c#\	2b#X	.
.	16qqB#X/	.	.
.	4c#\	.	.
.	8F#\L	2cc#	.
.	8D#\J	.	.
.	8r	.	.
.	8B#\	.	.
=11	=11	=11	=11
!!linebreak:original
1r	4E\ 4G# 4c#	(>4cc#\	mf
.	.	16qqb#X/	.
.	4E\ 4G# 4c#	4cc#\	.
.	4E\ 4G# 4c#	4g#/	.
.	4E\ 4G# 4c#	8cc#/L	.
.	.	8g#/J)	.
=12	=12	=12	=12
1r	4Fn\ 4A 4dn	(>4ddn\	>
.	.	16qqcc#/	.
.	4F\ 4A 4d	4dd\	.
.	4F\ 4A 4d	4a/	.
.	4F\ 4A 4d	8dd\L	.
.	.	8a\J)	.
=13	=13	=13	=13
1r	4F#\ 4d#	(>4dd#\	.
.	.	16qqddn/	.
.	4r	4dd#X\	.
.	2r	4a#X/	.
.	.	8dd#\L	.
.	.	8a#\J)	.
=14	=14	=14	=14
1r	(>4F#\ 4d#	1r	]
.	4F##X\ 4e	.	.
.	4G#\ 4e#X	.	.
.	4A\) 4f#	.	.
=15	=15	=15	=15
!!linebreak:original
*	*clefG2	*	*
*M3/4	*M3/4	*M3/4	*
2.r	4A/ 4cn 4e 4f#	4ccn\ 4dd# 4ggn 4aa	]
.	8.r	8.gg\L	.
.	16.r	16.aa\K	.
.	8..A/ 8..c 8..e 8..f#	8..cc\J 8..dd# 8..gg 8..aa	.
=16	=16	=16	=16
*M3/8	*M3/8	*M3/8	*
4.r	4.r	8r	.
.	.	(>8aa\L	.
.	.	8ff#\J	.
=17	=17	=17	=17
4.r	4.r	8.ff#\L	.
.	.	8.ggn\J)	.
=18	=18	=18	=18
*M2/4	*M2/4	*M2/4	*
2r	4e/ 4gn 4b	[2ee\ [2ggn [2bb	p
.	4r	.	.
*	*clefF4	*	*
=19	=19	=19	=19
*M4/4	*M4/4	*M4/4	*
1r	(<4EE/	1ee] 1gg] 1bb]	mf
.	16qqDD#/	.	.
.	4EE/	.	.
.	4BBB/	.	.
.	8EE/L	.	.
.	8BBB/J)	.	.
=20	=20	=20	=20
!!linebreak:original
*M3/4	*M3/4	*M3/4	*
2.r	8r	8r	.
*	*clefG2	*	*
.	8dn/ 8fn 8a	8ddn\ 8ffn 8aa	p
.	4e/ 4gn 4b	[2ee\ [2ggn [2bb	.
.	4r	.	.
*	*clefF4	*	*
=21	=21	=21	=21
*M4/4	*M4/4	*M4/4	*
1r	(<4EE/	1ee] 1gg] 1bb]	mf
.	16qqDD#/	.	.
.	4EE/	.	.
.	4BBB/	.	.
.	8EE/L	.	.
.	8BBB/J)	.	.
=22	=22	=22	=22
1r	8r	8r	.
*	*clefG2	*	*
.	8.e/L 8.gn 8.b	8.ee\L 8.ggn 8.bb	mp
.	8dn/ 8fn 8a	8ee\ 8gg 8bb	.
.	8.c#/ 8.e 8.g#X	8.ee\ 8.gg 8.bb	.
.	8.B/ 8.d 8.f#X	8.ee\ 8.gg-X 8.bb	.
.	8.B,/J 8.d 8.f#	8.ee,\J 8.gg- 8.bb	.
*	*clefF4	*	*
=23	=23	=23	=23
*M7/8	*M7/8	*M7/8	*
2..r	(<8GGn/L	2..r	.
.	8FF#/	.	.
.	8GG/J	.	.
.	4DDn/	.	.
.	8GG/L	.	.
.	8DD/J)	.	.
=24	=24	=24	=24
!!pagebreak:original
*M8/8	*M8/8	*M8/8	*
1r	8r	8r	.
*	*clefFv4	*clefF4	*
.	(<8GGGn/L	(>8Gn\L	.
.	8FFF#/	8F#\	.
.	8GGG/J	8G\J	.
.	4DDDn/	4Dn\	.
.	8GGG/L	8G\L	.
.	8DDD/J)	8D\J)	.
=25	=25	=25	=25
*M12/8	*M12/8	*M12/8	*
1.r	8r	(>1Gn 1B 1cn 1dn	.
.	(<8GGGn/L	.	.
.	8FFF#/J	.	.
.	8GGG/L	.	.
.	8EEE-X/	.	.
.	8DDDn/J	.	.
.	8EEE-/L	.	.
.	8BBBB/	.	.
.	8BBBB-X/J	[8A\ [8c#X [8d [8e	.
.	8BBBBn/	4.A\]) 4.c#] 4.d] 4.e]	.
.	4AAAA/)	.	.
*	*	*clefG2	*
=26	=26	=26	=26
*k[f#c#g#d#a#]	*k[f#c#g#d#a#]	*k[f#c#g#d#a#]	*
*M4/4	*M4/4	*M4/4	*
1r	1BBBB;	1B; 1d# 1f#	.
=27	=27	=27	=27
!!linebreak:original
*M12/8	*M12/8	*M12/8	*
!	!	!LO:TX:a:B:t=Much Faster	!
1.r	1.r	(<8b/L	ppp
.	.	8a#/	<
.	.	8b/J	.
.	.	8f#/L	.
.	.	8e#X/	.
.	.	8f#/J	.
.	.	8d#/L	.
.	.	8c##X/	.
.	.	8d#/J	.
.	.	8f#/L	.
.	.	8e#/	.
.	.	8f#/J)	.
*	*clefF4	*	*
=28	=28	=28	=28
1.r	1.BB 1.D# 1.F#	(<8b/L	.
.	.	8a#/	.
.	.	8b/J	.
.	.	8f#/L	.
.	.	8e#X/	.
.	.	8f#/J	.
.	.	8d#/L	.
.	.	8c##X/	.
.	.	8d#/J	.
.	.	8f#/L	.
.	.	8e#/	.
.	.	8f#/J)	.
=29	=29	=29	=29
!!linebreak:original
1.r	1.BB 1.D# 1.F# 1.G#	(<8b/L	[
.	.	8a#/	<
.	.	8b/J	.
.	.	8f#/L	.
.	.	8e#X/	.
.	.	8f#/J	.
.	.	8d#/L	.
.	.	8c##X/	.
.	.	8d#/J	.
.	.	8f#/L	.
.	.	8e#/	.
.	.	8f#/J)	.
=30	=30	=30	=30
1.r	1.BB 1.D# 1.E 1.F# 1.G#	(<8b/L	.
.	.	8a#/	.
.	.	8b/J	.
.	.	8f#/L	.
.	.	8e#X/	.
.	.	8f#/J	.
.	.	8d#/L	.
.	.	8c##X/	.
.	.	8d#/J	.
.	.	8f#/L	.
.	.	8e#/	.
.	.	8f#/J)	.
=31	=31	=31	=31
!!linebreak:original
1.r	1.BB 1.D# 1.E 1.F# 1.G# 1.An	(<8b/L	[
.	.	8a#/	<
.	.	8b/J	.
.	.	8f#/L	.
.	.	8e#X/	.
.	.	8f#/J	.
.	.	8d#/L	.
.	.	8c##X/	.
.	.	8d#/J	.
.	.	8f#/L	.
.	.	8e#/	.
.	.	8f#/J)	.
=32	=32	=32	=32
1.r	1.E 1.G# 1.B	(<8b/L	.
.	.	8a#/	.
.	.	8b/J	.
.	.	8f#/L	.
.	.	8e#X/	.
.	.	8f#/J	.
.	.	8d#/L	.
.	.	8c##X/	.
.	.	8d#/J	.
.	.	8f#/L	.
.	.	8e#/	.
.	.	8f#/J)	.
=33||	=33||	=33||	=33||
!!linebreak:original
*k[f#c#g#d#a#e#b#]	*k[f#c#g#d#a#e#b#]	*k[f#c#g#d#a#e#b#]	*
1.r	1.G# 1.B# 1.c# 1.d#	(>8cc#\L	[
.	.	8b#\	<
.	.	8cc#\J	.
.	.	8g#/L	.
.	.	8f##X/	.
.	.	8g#/J	.
.	.	8e#/L	.
.	.	8en/	.
.	.	8e#X/J	.
.	.	8g#/L	.
.	.	8f##/	.
.	.	8g#/J)	.
=34	=34	=34	=34
1.r	1.A# 1.c# 1.e#	(>8cc#\L	.
.	.	8b#\	.
.	.	8cc#\J	.
.	.	8g#/L	.
.	.	8f##X/	.
.	.	8g#/J	.
.	.	8e#/L	.
.	.	8en/	.
.	.	8e#X/J	.
.	.	8g#/L	.
.	.	8f##/	.
.	.	8g#/J)	.
=35	=35	=35	=35
!!linebreak:original
*	*clefG2	*	*
1.r	1.c# 1.e# 1.g#	(>8cc#\L	.
.	.	8b#\	.
.	.	8cc#\J	.
.	.	8cc#\L	.
.	.	8b#\	.
.	.	8cc#\J	.
.	.	8cc#\L	.
.	.	8b#\	.
.	.	8cc#\J	.
.	.	8cc#\L	.
.	.	8b#\	.
.	.	8cc#\J)	.
=36	=36	=36	=36
1.r	1.c# 1.g# 1.b#	(>8cc#\L	.
.	.	8b#\	.
.	.	8cc#\J	.
.	.	8cc#\L	.
.	.	8b#\	.
.	.	8cc#\J	.
.	.	8cc#\L	.
.	.	8b#\	.
.	.	8cc#\J	.
.	.	8cc#\L	.
.	.	8b#\	.
.	.	8cc#\J)	.
=37	=37	=37	=37
1.r	2.r	2.cc#	[
.	2.c#/ 2.g# 2.b#	2.dd#	.
=38	=38	=38	=38
*k[b-]	*k[b-]	*k[b-]	*
1.r	1.c 1.f 1.a	1.ff 1.ccc	.
*	*clefF4	*	*
=39	=39	=39	=39
*M2/4	*M2/4	*M2/4	*
!	!	!LO:TX:a:B:t=Slow, Accelerando	!
2r	4F\	2r	p
.	4F\ 4A 4c	.	<
=40	=40	=40	=40
2r	4C/	2r	.
.	4F\ 4A 4c	.	.
=41	=41	=41	=41
!!pagebreak:original
2r	4BB-/	2r	.
.	4C\ 4D 4G	.	.
=42	=42	=42	=42
2r	4CC/	2r	.
.	4r	.	.
=43	=43	=43	=43
!	!	!LO:TX:a:B:t=Fast, Pseudo Ragtime	!
2r	8FF/L	2r	.
.	8GG/J	.	.
.	8AA/L	.	.
.	8BB-/J	.	.
=44	=44	=44	=44
2r	4F\	4f/	[
.	4F\ 4A 4c	8e/L	.
.	.	8f/J	.
=45	=45	=45	=45
2r	4C/	4c/	.
.	4F\ 4A 4c	8f/L	.
.	.	8c/J	.
=46	=46	=46	=46
2r	4BB-/	2r	.
.	4C\ 4D 4G	.	.
=47	=47	=47	=47
2r	4CC/	2r	.
.	4r	.	.
=48	=48	=48	=48
2r	8FF/L	8f/L	.
.	8GG/J	8g/J	.
.	8AA/L	8a/L	.
.	8BB-/J	8b-/J	.
=49	=49	=49	=49
2r	4F\	4ff\	.
.	4F\ 4A 4c	8ee\L	.
.	.	8ff\J	.
=50	=50	=50	=50
2r	4C/	4cc\	.
.	4F\ 4A 4c	8ff\L	.
.	.	8cc\J	.
=51	=51	=51	=51
2r	4BB-/	4.g\ 4.b- 4.dd	.
.	4C\ 4D 4G	.	.
.	.	8g\ 8b- 8dd	.
=52	=52	=52	=52
2r	4CC/	4f/ 4a 4cc	.
.	4C\ 4E 4G	4f/ 4a 4cc	.
=53	=53	=53	=53
2r	4F\	4ff\	.
.	4F\ 4A 4c	8ee\L	.
.	.	8ff\J	.
=54	=54	=54	=54
!!linebreak:original
2r	4C/	4cc\	.
.	4F\ 4A 4c	8ff\L	.
.	.	8cc\J	.
=55	=55	=55	=55
2r	8r	8r	.
.	8r	8g\ 8gg	.
.	4r	8a\L 8aa	.
.	.	8b-\J 8bb-	.
=56	=56	=56	=56
2r	8r	4a\ 4aa	.
.	8G\	.	.
.	8A\L	4r	.
.	8B-\J	.	.
=57	=57	=57	=57
2r	4c\	8r	.
.	.	4ee\	.
.	4G\	.	.
.	.	8dd\	.
=58	=58	=58	=58
2r	4E\	4ee\	.
.	4E\ 4G#X 4Bn	8dd#X\L	.
.	.	8ee\J	.
=59	=59	=59	=59
2r	4BBn/	4bn\	.
.	4E\ 4G#X 4Bn	8ee\L	.
.	.	8b\J	.
=60	=60	=60	=60
2r	4AA/	4.f#X/ 4.a 4.cc#X	.
.	4BBn/ 4C#X 4F#X	.	.
.	.	8f#/ 8a 8cc#	.
=61	=61	=61	=61
2r	4BBBn/	4e/ 4g#X 4bn	.
.	4BBn\ 4D#X 4F#X	4e/ 4g# 4b	.
=62	=62	=62	=62
2r	4E\	8r	.
.	.	8ee\	.
.	4E\ 4G#X 4Bn	8dd#X\L	.
.	.	8ee\J	.
=63	=63	=63	=63
!!linebreak:original
2r	4BBn/	4bn\	.
.	4E\ 4G#X 4Bn	8ee\L	.
.	.	8b\J	.
=64	=64	=64	=64
2r	4AA/	4.f#X/ 4.a 4.cc#X	.
.	4BBn/ 4C#X 4F#X	.	.
.	.	8f#/ 8a 8cc#	.
=65	=65	=65	=65
2r	4BBBn/	2d#X/ 2f#X 2bn	.
.	4BBn\ 4D#X 4F#X	.	.
=66	=66	=66	=66
2r	4F\	2r	.
.	4F\ 4A 4c	.	.
=67	=67	=67	=67
2r	2r	8ff\L	.
.	.	8ee\J	.
.	.	8ff\L	.
.	.	8ee\J	.
=68	=68	=68	=68
2r	4F#X\	2r	.
.	4F#\ 4B- 4c#X	.	.
=69	=69	=69	=69
2r	2r	8ff#X\L	.
.	.	8ffn\J	.
.	.	8ff#X\L	.
.	.	8ffn\J	.
=70	=70	=70	=70
2r	4G\	2r	.
.	4G\ 4Bn 4d	.	.
=71	=71	=71	=71
2r	2r	8gg\L	.
.	.	8ff#X\J	.
.	.	8gg\L	.
.	.	8ff#\J	.
=72	=72	=72	=72
!!linebreak:original
2r	4A-X\	2r	.
.	4A-\ 4c 4e-X	.	.
=73	=73	=73	=73
2r	4A-X\	8aa-X\L	.
.	.	8gg\J	.
.	4A-\ 4c 4e-X	8aa-\L	.
.	.	8gg\J	.
=74	=74	=74	=74
2r	4A-X\	8r	.
.	.	8aa-X\	.
.	4A-\ 4c 4e-X	16bb-\LL	.
.	.	16gg\J	.
.	.	8aa-\J	.
=75	=75	=75	=75
2r	4C/	4ee-X\	.
.	4c\ 4e-X 4g	8cc\L	.
.	.	8a-X\J	.
=76	=76	=76	=76
2r	4G\	2b-\ 2dd-X	.
.	4G\ 4B- 4d-X	.	.
=77	=77	=77	=77
2r	4A-X\	2a-X\ 2cc	.
.	4A-\ 4c	.	.
=78	=78	=78	=78
2r	4A-X\	8r	.
.	.	8aa-X\	.
.	4A-\ 4c 4e-X	16bb-\LL	.
.	.	16gg\J	.
.	.	8aa-\J	.
=79	=79	=79	=79
2r	4C/	4ee-X\	.
.	4c\ 4e-X 4g	8cc\L	.
.	.	8a-X\J	.
=80	=80	=80	=80
2r	4G\	4.g/ 4.b-	.
.	4G\ 4B- 4d	.	.
.	.	8g/ 8b-	.
=81	=81	=81	=81
!!linebreak:original
2r	4E\	8e-X/ 8g	.
.	.	4.en/ 4.a-X	.
.	4A-X\ 4B-	.	.
=82	=82	=82	=82
*k[f#c#g#d#]	*k[f#c#g#d#]	*k[f#c#g#d#]	*
2r	4E\	8r	.
.	.	8ee\	.
.	4E\ 4G# 4B	16ff#\LL	.
.	.	16dd#\J	.
.	.	8ee\J	.
=83	=83	=83	=83
2r	4GG#/	4b\	.
.	4G#\ 4B 4d#	8g#/L	.
.	.	8e/J	.
=84	=84	=84	=84
2r	4D#\	2f#/ 2a	.
.	4D#\ 4F# 4A	.	.
=85	=85	=85	=85
2r	4E\	2e/ 2g#	.
.	4E\ 4G#	.	.
=86	=86	=86	=86
2r	4E\	8r	.
.	.	8ee\	.
.	4D#\	16dd#\LL	.
.	.	16ee\	.
.	.	16dd#\	.
.	.	16ee\JJ	.
=87	=87	=87	=87
2r	4BB/	8b\L	.
.	.	16b-X\L	.
.	.	16bn\JJ	.
.	4AA#X/	16b-X\LL	.
.	.	16bn\JJ	.
.	.	8r	.
=88	=88	=88	=88
2r	4GG#/	8g#/L	.
.	.	16f##X/L	.
.	.	16g#/JJ	.
.	4FF##X/	16f##/LL	.
.	.	16g#/JJ	.
.	.	8r	.
=89	=89	=89	=89
!!linebreak:original
2r	8r	4r	.
.	8EE/	.	.
.	4E;\	4g#;\ 4b 4ee	.
=90!|:	=90!|:	=90!|:	=90!|:
*k[f#c#g#d#a#]	*k[f#c#g#d#a#]	*k[f#c#g#d#a#]	*
*M3/4	*M3/4	*M3/4	*
!	!	!LO:TX:a:B:t=Allegro Non Troppo	!
2.r	2.r	8bb\L	pp
.	.	8aa#\J	.
.	.	8bb\L	.
.	.	8ff#\J	.
.	.	8dd#\L	.
.	.	8ff#\J	.
=91	=91	=91	=91
2.r	2.r	8aa#\L	.
.	.	8bb\J	.
.	.	8aa#\L	.
.	.	8bb\J	.
.	.	8aa#\L	.
.	.	8bb\J	.
=92	=92	=92	=92
2.r	2.r	8bb\L	.
.	.	8ff#\J	.
.	.	8dd#\L	.
.	.	8ff#\J	.
.	.	8bb\L	.
.	.	8dd#\J	.
=93	=93	=93	=93
2.r	2.r	8cc#\L	.
.	.	8b\J	.
.	.	8ff#\L	.
.	.	8dd#\J	.
.	.	4bb\	.
*	*clefG2	*	*
=94	=94	=94	=94
2.r	8b/L	4ee\	p
.	8a#/J	.	.
.	8b/L	8ff#\L	.
.	8f#/J	8dd#\J	.
.	8d#/L	8b\L	.
.	8f#/J	8dd#\J	.
=95	=95	=95	=95
!!pagebreak:original
2.r	8a#/L	8cc#\L	.
.	8b/J	8dd#\J	.
.	8a#/L	8ee\L	.
.	8b/J	8ff#\J	.
.	8a#/L	8dd#\L	.
.	8b/J	8ff#\J	.
=96	=96	=96	=96
2.r	8b/L	8cc#\L	.
.	8f#/J	8dd#\J	.
.	8d#/L	8cc#\L	.
.	8f#/J	8dd#\J	.
.	8b/L	8ff#\L	.
.	8d#/J	8cc#\J	.
=97	=97	=97	=97
2.r	8c#/L	8b/L	.
.	8B/J	8g#/J	.
.	8f#/L	8d#/L	.
.	8d#/J	8g#/J	.
.	4b\	8d#/L	.
.	.	8B/J	.
*clefF4	*	*	*
=98	=98	=98	=98
8B\L	4ee\	8g#/L	mf
8A#\J	.	8cc#/J	.
8B\L	8ff#\L	8dd#\L	.
8F#\J	8dd#\J	8cc#\J	.
8D#\L	8b\L	8g#/L	.
8F#\J	8dd#\J	8a#/J	.
=99	=99	=99	=99
8A#\L	8cc#\L	8ffn\L	.
8B\J	8dd#\J	8ff#X\J	.
8A#\L	8ee\L	8cc#\L	.
8B\J	8ff#\J	8dd#\J	.
8A#\L	8dd#\L	8fn/L	.
8B\J	8ff#\J	8f#X/J	.
=100	=100	=100	=100
8B\L	8cc#\L	8ff#\L	.
8F#\J	8dd#\J	8cc#\J	.
8D#\L	8cc#\L	8gg#\L	.
8F#\J	8dd#\J	8bb\J	.
8B\L	8ff#\L	8dd#/L	.
8D#\J	8cc#\J	8f#/J	.
=101	=101	=101	=101
!!linebreak:original
8C#/L	8b/L	4f#/	.
8BB/J	8g#/J	.	.
8F#\L	8d#/L	8b/L	.
8D#\J	8g#/J	8g#/J	.
4B\	8d#/L	4f#/	.
.	8b/J	.	.
=102	=102	=102	=102
8c#\	8cc#\L	8e#X/	f
8r	8b\J	8r	.
4r	8a#/L	2r	.
.	8g#/J	.	.
8r	4f#/	.	.
8c#\	.	.	.
=103	=103	=103	=103
8d#\L	2.r	4r	.
8e\J	.	.	.
8d#\L	.	8c#/L	.
8d#\J	.	8B/J	.
8A#\L	.	8f#/L	.
8B\J	.	8d#/J	.
=104	=104	=104	=104
8B\L	8d#/L	8b/L	ff
8B\J	8d#/J	8f#/J	.
8B\L	8f#/L	8cc#\L	.
8B\J	8f#/J	8dd#\J	.
8B\L	8f#/L	8ee\L	.
8B\J	8d#/J	8ff#\J	.
=105	=105	=105	=105
8B\L	8g#/L	8ee\L	.
8B\J	8f#/J	8dd#\J	.
2B\	2f#/	2dd#\	.
=106:|!	=106:|!	=106:|!	=106:|!
*k[b-e-]	*k[b-e-]	*k[b-e-]	*
2.r	4Bn/ 4f#X	4d#X/ 4g#X	mp
.	4B/ 4f#	4d#/ 4g#	.
.	4B/ 4f#	4d#/ 4g#	.
=107	=107	=107	=107
!!linebreak:original
*M9/8	*M9/8	*M9/8	*
8%9r	4.B-/ 4.f	4.d/ 4.g	<
.	4.A/ 4.f	4.d/ 4.g	.
.	4.B-/ 4.en	4.d/ 4.g	[
=108	=108	=108	=108
*M3/4	*M3/4	*M3/4	*
!	!	!LO:TX:a:B:t=Slowing Down	!
2.r	4B-/ 4en	4d/ 4g	[
.	4B-/ 4e	4d/ 4g	.
.	4B-/ 4e	4d/ 4g	.
*	*clefF4	*	*
=109	=109	=109	=109
*M9/8	*M9/8	*M9/8	*
8%9r	4.G\ 4.d	4.en/ 4.g	<
.	4.G\ 4.d	4.e/ 4.g	.
.	4.A\ 4.d	4.e/ 4.g	[
=110	=110	=110	=110
*M3/4	*M3/4	*M3/4	*
2.r	2.G\ 2.B-	2.d/ 2.g	[
=111||	=111||	=111||	=111||
*M9/8	*M9/8	*M9/8	*
!	!	!LO:TX:a:B:t=Adagio, Free Tempo	!
8%9r	4.G\ 4.B- 4.d	8%9r	.
.	4.G\ 4.B- 4.d	.	.
.	4.G\ 4.B- 4.d	.	.
=112	=112	=112	=112
8%9r	4.G\ 4.B- 4.d	2g/	p
.	4.G\ 4.B- 4.d	.	.
.	.	4.f#X/	.
.	4.G\ 4.B- 4.d	.	.
.	.	4g/	.
=113	=113	=113	=113
8%9r	4.G\ 4.c	4.d/	.
.	4.G\ 4.c	4.g/	.
.	4.G\ 4.c	4.d/	.
=114	=114	=114	=114
!!linebreak:original
.	.	4qqd/	mp
.	.	4qqe-/	.
!	!	!LO:TX:b:i:t=Grace Notes ala Chopin	!
.	.	4qqf#X/	.
8%9r	4.G\ 4.B- 4.d	2g/	.
.	4.G\ 4.B- 4.d	.	.
.	.	4.f#/	.
.	4.G\ 4.B- 4.d	.	.
.	.	4g/	.
=115	=115	=115	=115
8%9r	4.G\ 4.A	4.e-/	.
.	4.G\ 4.A	4.c/	.
.	4.G\ 4.A	4.d/	.
=116	=116	=116	=116
*M7/8	*M7/8	*M7/8	*
!	!	!LO:TX:a:B:t=Slowing Down	!
2..r	4.E-\ 4.G 4.c	4.e-/	<
.	2G\ 2B-	8d/L	.
.	.	8c/J	.
.	.	4d/	.
=117	=117	=117	=117
*M6/8	*M6/8	*M6/8	*
!	!	!LO:TX:b:i:t=Deliberate, Forceful	!
2.r	4.D;\ 4.F	4.B-;/	[
.	4.AA;/ 4.C 4.En	4.A;/	ff
=118	=118	=118	=118
*M9/8	*M9/8	*M9/8	*
8%9r	4.GG;/ 4.BB- 4.D	[1G;	ff
.	4.GG;/ 4.BB- 4.D	.	f
.	4.GG;/ 4.BB- 4.D	.	mf
.	.	8G/]	.
=119	=119	=119	=119
!	!	!LO:TX:a:B:t=Largo	!
8%9r	8GG/L	8%9r	p
.	8D/	.	.
.	8D/J	.	.
.	4.D\	.	.
.	8C/	.	.
.	4D\	.	.
=120	=120	=120	=120
!!linebreak:original
*M8/8	*M8/8	*M8/8	*
1r	8BB-/L	1r	.
.	8AA/	.	.
.	8GG/J	.	.
.	8D/L	.	.
.	8GG/J	.	.
.	4.D\	.	.
=121	=121	=121	=121
*M9/8	*M9/8	*M9/8	*
8%9r	8GG/L	8%9r	mp
.	8D/	.	.
.	8D/J	.	.
.	4.D\	.	.
.	8E-\L	.	.
.	8D\	.	.
.	8E-\J	.	.
=122	=122	=122	=122
*M8/8	*M8/8	*M8/8	*
1r	2.D\	1r	.
.	8AA/L	.	.
.	8GG/J	.	.
=123	=123	=123	=123
*M12/8	*M12/8	*M12/8	*
1.r	8FF/L	1.r	<
.	8C/	.	.
.	8C/J	.	.
.	4.C/	.	.
.	8FF/L	.	.
.	8C/	.	.
.	8C/J	.	.
.	4.C/	.	.
=124	=124	=124	=124
!!pagebreak:original
*M18/8	*M18/8	*M18/8	*
4%9r	8GG/L	2r	[
.	8D/	.	.
.	8D/J	.	.
.	4.D\	.	.
*	*	*clefF4	*
.	.	8G\L	.
.	.	8d\	.
.	4r	8d\J	.
.	.	4.d\	.
.	8GG/L	.	.
.	8D/	.	.
.	8D/J	4r	.
.	4.D\	.	.
.	.	8G\L	.
.	.	8d\	.
.	4r	8d\J	.
.	.	4.d\	.
*	*clefG2	*	*
.	8g\L	.	f
.	8dd\J	.	.
=125	=125	=125	=125
*M8/8	*M8/8	*M8/8	*
1r	8dd\L	1r	[
.	8dd\	.	.
.	8g\	.	.
.	8dd\	.	.
.	8dd\J	.	.
.	4.dd;\	.	.
=126	=126	=126	=126
!!linebreak:original
*	*clefFv4	*	*
*M15/8	*M15/8	*M15/8	*
1...r	4.AAA/ 4.CC 4.EEn	1...r	.
.	4.BBB-\ 4.DD 4.FF#X	.	.
.	2.GGG/ 2.BBB- 2.GG	.	.
*	*clefF4	*	*
.	4.GG/ 4.BBn 4.D 4.G	.	.
*	*	*clefG2	*
=127	=127	=127	=127
*k[f#]	*k[f#]	*k[f#]	*
*M5/8	*M5/8	*M5/8	*
!	!	!LO:TX:a:B:t=Allegro Vivace	!
3...r	8GG/	8.g/L	mf
.	4D\	.	.
.	.	16f#/K	.
.	.	8g/J	.
.	8BB/L	16d/LL	.
.	.	16g/J	.
.	8D/J	8d/J	.
=128	=128	=128	=128
3...r	8GG/	4g/	.
.	4E\	.	.
.	.	8f#/	.
.	8BB/L	4g/	.
.	8E/J	.	.
=129	=129	=129	=129
3...r	8FF#/	8.g/L	.
.	4D\	.	.
.	.	16f#/K	.
.	.	8g/J	.
.	8BB/L	16d/LL	.
.	.	16g/J	.
.	8D/J	8d/J	.
=130	=130	=130	=130
3...r	8GG/	4g/	.
.	4D\	.	.
.	.	8f#/	.
.	8BB/L	4g/	.
.	8D/J	.	.
=131	=131	=131	=131
!!linebreak:original
3...r	8GG/	8b\	.
.	4Fn\	4b\	.
.	8BB\L	8a/L	.
.	8F#X\J	8d/J	.
=132	=132	=132	=132
*k[f#c#]	*k[f#c#]	*k[f#c#]	*
3...r	8D\	8.dd\L	.
.	4A\	.	.
.	.	8cc#\	.
.	.	8dd\	.
.	8F#\L	.	.
.	.	16cc#\K	.
.	8A\J	8dd\J	.
=133	=133	=133	=133
3...r	8D\	4g/	.
.	4B\	.	.
.	.	4a/	.
.	8F#\L	.	.
.	8B\J	8g/	.
=134	=134	=134	=134
3...r	8D-X\	8.dd\L	.
.	4A\	.	.
.	.	8cc#\	.
.	.	8dd\	.
.	8F#\L	.	.
.	.	16cc#\K	.
.	8A\J	8dd\J	.
=135	=135	=135	=135
3...r	8D\	8g/	.
.	4A\	4a/	.
.	8F#\L	4g/	.
.	8A\J	.	.
=136	=136	=136	=136
3...r	8D\	8f#/	.
.	4cn\	4f#/	.
.	8F#\L	8a/L	.
.	8c#X\J	8a/J	.
=137||	=137||	=137||	=137||
!!linebreak:original
*k[f#c#g#]	*k[f#c#g#]	*k[f#c#g#]	*
3...r	8AA/	16r	.
.	.	16g#/KL	.
.	4E\	8a/	.
.	.	16g#/K	.
.	.	8a/J	.
.	8C#\L	.	.
.	.	16r	.
.	8E\J	8f#/	.
=138	=138	=138	=138
3...r	8AA/	8d/L	.
.	4F#\	8f#/	.
.	.	8a/J	.
.	8C#\L	8cc#/L	.
.	8F#\J	8a/J	.
=139	=139	=139	=139
3...r	8GG#/	16r	.
.	.	16g#/KL	.
.	4E\	8a/	.
.	.	16g#/K	.
.	.	8a/J	.
.	8C#\L	.	.
.	.	16r	.
.	8E\J	8f#/	.
=140	=140	=140	=140
3...r	8AA/	8d/L	.
.	4E\	8f#/	.
.	.	8a/J	.
.	8C#\L	8cc#\L	.
.	8E\J	8dd\J	.
=141	=141	=141	=141
3...r	8AA/	8ee\	.
.	4Gn\	4cc#\	.
.	8C#\L	8g#/L	.
.	8G\J	8f#/J	.
=142	=142	=142	=142
*k[f#c#g#d#]	*k[f#c#g#d#]	*k[f#c#g#d#]	*
3...r	8EE/	4.e/	.
.	4BB/	.	.
.	8GG#/L	8f#/L	.
.	8BB/J	8e/J	.
=143	=143	=143	=143
!!linebreak:original
3...r	8EE/	4a/	.
.	4C#/	.	.
.	.	8b\	.
.	8GG#/L	4a/	.
.	8C#/J	.	.
=144	=144	=144	=144
3...r	8DD#/	4.e/	.
.	4BB/	.	.
.	8GG#/L	8g#/L	.
.	8BB/J	8e/J	.
=145	=145	=145	=145
3...r	8EE/	4a/	.
.	4BB/	.	.
.	.	8b\	.
.	8GG#/L	4cc#\	.
.	8BB/J	.	.
=146	=146	=146	=146
3...r	8EE/	4.r	.
.	4Dn\	.	.
.	8GG#/L	8cc#\L	.
.	8D#X/J	8b\J	.
=147	=147	=147	=147
*k[f#c#g#d#a#]	*k[f#c#g#d#a#]	*k[f#c#g#d#a#]	*
3...r	8BB/	4b\	.
.	4F#\	.	.
.	.	8b\	.
.	8D#\L	4b\	.
.	8F#\J	.	.
=148	=148	=148	=148
3...r	8BB/	8.b/L	.
.	4G#\	.	.
.	.	8.f#/J	.
.	8D#\L	8g#/L	.
.	8G#\J	8f#/J	.
=149	=149	=149	=149
3...r	8AA#/	4b\	.
.	4F#\	.	.
.	.	8b\	.
.	8D#\L	4b\	.
.	8F#\J	.	.
=150	=150	=150	=150
!!linebreak:original
3...r	8BB/	8.b/L	.
.	4F#\	.	.
.	.	8.f#/J	.
.	8D#\L	8g#/L	.
.	8F#\J	8f#/J	.
=151	=151	=151	=151
3...r	8BB/	4b\	.
.	4An\	.	.
.	.	8b\	.
.	8D#\L	4b\	.
.	8A\J	.	.
=152	=152	=152	=152
*k[b-e-a-d-g-c-]	*k[b-e-a-d-g-c-]	*k[b-e-a-d-g-c-]	*
3...r	8GG-/	8g-/L	.
.	4D-\	8f/	.
.	.	8g-/J	.
.	8BB-/L	8f/L	.
.	8D-/J	8g-/J	.
=153	=153	=153	=153
3...r	8GG-/	8d-/L	.
.	4E-\	8e-/	.
.	.	8d-/J	.
.	8BB-/L	8e-/L	.
.	8E-/J	8d-/J	.
=154	=154	=154	=154
3...r	8FF/	8g-/L	.
.	4D-\	8f/	.
.	.	8g-/J	.
.	8BB-/L	8f/L	.
.	8D-/J	8g-/J	.
=155	=155	=155	=155
3...r	8GG-/	8d-/L	.
.	4D-\	8e-/	.
.	.	8d-/J	.
.	8BB-/L	8e-/L	.
.	8D-/J	8d-/J	.
=156	=156	=156	=156
!!pagebreak:original
3...r	8GG-/	8b-\	.
.	4C-/	4ee-\	.
.	8Cn/L	8a-/L	.
.	8AA-/J	8e-/J	.
=157	=157	=157	=157
*k[b-e-a-d-]	*k[b-e-a-d-]	*k[b-e-a-d-]	*
3...r	8AA-/	4a-/	.
.	4E-\	.	.
.	.	8g/	.
.	8C\L	4a-/	.
.	8E-\J	.	.
=158	=158	=158	=158
3...r	8AA-/	4e-/	.
.	4E-\	.	.
.	.	8a-/	.
.	8C\L	4e-/	.
.	8E-\J	.	.
=159	=159	=159	=159
3...r	8AA-/	4a-/	.
.	4E-\	.	.
.	.	8g/	.
.	8C\L	4a-/	.
.	8E-\J	.	.
=160	=160	=160	=160
3...r	8AA-/	4e-/	.
.	4E-\	.	.
.	.	8a-/	.
.	8C\L	4e-/	.
.	8E-\J	.	.
=161	=161	=161	=161
3...r	8AA-/	8A-/ 8c 8e-	.
.	4G-X\	4A-/ 4c 4e-	.
.	8C\L	8A-/L 8c 8e-	.
.	8G-\J	8A-/J 8c 8e-	.
=162||	=162||	=162||	=162||
!!linebreak:original
*k[f#c#g#d#a#e#b#]	*k[f#c#g#d#a#e#b#]	*k[f#c#g#d#a#e#b#]	*
3...r	8C#/	8c#/ 8e# 8g#	ff
.	4G#\	4c#/ 4e# 4g#	.
.	8E#\L	8c#/L 8e# 8g#	.
.	8G#\J	8c#/J 8e# 8g#	.
=163	=163	=163	=163
3...r	8D#\	8d#/ 8f##X 8a#	.
.	4A#\	4d#/ 4f## 4a#	.
.	8F##X\L	8d#/L 8f## 8a#	.
.	8A#\J	8d#/J 8f## 8a#	.
=164	=164	=164	=164
3...r	8G#\	8g#\ 8b# 8dd#	.
.	4f#\	4g#\ 4b# 4dd#	.
.	8B#\L	8g#\L 8b# 8dd#	.
.	8f#\J	8g#\J 8b# 8dd#	.
=165	=165	=165	=165
3...r	8c#/	8cc#\ 8ee# 8gg#	.
.	4g#/	4cc#\ 4ee# 4gg#	.
.	8e#/L	8cc#\L 8ee# 8gg#	.
.	8g#/J	8cc#\J 8ee# 8gg#	.
=166	=166	=166	=166
*M6/8	*M6/8	*M6/8	*
2.r	8c#/	8cc#\ 8ee# 8gg#	.
.	4g#/	4cc#\ 4ee# 4gg#	.
.	8e#/L	8cc#\L 8ee# 8gg# 8ccc#	.
.	8g#/	8cc#\ 8ee# 8gg# 8ccc#	.
.	8c#/J	8cc#\J 8ee# 8gg# 8ccc#	.
=167	=167	=167	=167
2.r	8r	8r	.
.	8C#\L 8E# 8G# 8c#	8cc#\L 8ee# 8gg# 8ccc#	.
.	8C#\J 8E# 8G# 8c#	8cc#\J 8ee# 8gg# 8ccc#	.
.	8C#\ 8E# 8G# 8c#	8cc#\ 8ee# 8gg# 8ccc#	.
.	4C#\ 4E# 4G# 4c#	4cc#\ 4ee# 4gg# 4ccc#	.
==	==	==	==
*-	*-	*-	*-
!!!system-decoration: {(s1,s2,s3)}
!!!RDF**kern: > = above
!!!RDF**kern: < = below
